dist/img/zoom.svg

<svg xmlns="http://www.w3.org/2000/svg" width="28" height="30" viewBox="0 0 28 30" fill="none"><script xmlns=""/>
<path d="M6.75735 14.7573H10.7574V18.7573H14.7574V14.7573H18.7574V10.7573H14.7574V6.75732H10.7574V10.7573H6.75735V14.7573Z" fill="white"/>
<path fill-rule="evenodd" clip-rule="evenodd" d="M12.7574 24.7573C14.8293 24.7573 16.7786 24.2322 18.4794 23.3078L24.4142 29.2426L27.2426 26.4142L21.6468 20.8183C23.5796 18.6882 24.7574 15.8603 24.7574 12.7573C24.7574 6.12991 19.3848 0.757324 12.7574 0.757324C6.12994 0.757324 0.757355 6.12991 0.757355 12.7573C0.757355 19.3847 6.12994 24.7573 12.7574 24.7573ZM12.7574 20.7573C17.1756 20.7573 20.7574 17.1756 20.7574 12.7573C20.7574 8.33905 17.1756 4.75732 12.7574 4.75732C8.33908 4.75732 4.75735 8.33905 4.75735 12.7573C4.75735 17.1756 8.33908 20.7573 12.7574 20.7573Z" fill="white"/>
<script xmlns=""/></svg>

<svg xmlns="http://www.w3.org/2000/svg" width="28" height="30" viewBox="0 0 28 30" fill="none"><script/><path d="M6.757 14.757h4v4h4v-4h4v-4h-4v-4h-4v4h-4v4z" fill="#fff"/><path fill-rule="evenodd" clip-rule="evenodd" d="M12.757 24.757c2.072 0 4.022-.525 5.722-1.45l5.935 5.936 2.829-2.829-5.596-5.596a11.956 11.956 0 003.11-8.06c0-6.628-5.372-12-12-12-6.627 0-12 5.372-12 12 0 6.627 5.373 12 12 12zm0-4a8 8 0 100-16 8 8 0 000 16z" fill="#fff"/><script/></svg>
